icon-themes/breeze_svg/sfx2/res/actiontemplates017.svg

<svg viewBox="0 0 24 24" xmlns="http://www.w3.org/2000/svg"><path d="m6.7070312 4-.7070312.7070312 6.125 6.1249998 1.167969 1.167969-1.167969 1.167969-6.125 6.125.7070312.707031 6.1249998-6.125 1.875-1.875-1.875-1.875zm10.2929688 7c-.554 0-1 .446-1 1s.446 1 1 1 1-.446 1-1-.446-1-1-1z" fill="#4d4d4d"/></svg>

<svg xmlns="http://www.w3.org/2000/svg" viewBox="0 0 24 24">
 <path 
     style="fill:#4d4d4d" 
     d="M 6.7070312 4 L 6 4.7070312 L 12.125 10.832031 L 13.292969 12 L 12.125 13.167969 L 6 19.292969 L 6.7070312 20 L 12.832031 13.875 L 14.707031 12 L 12.832031 10.125 L 6.7070312 4 z M 17 11 C 16.446 11 16 11.446 16 12 C 16 12.554 16.446 13 17 13 C 17.554 13 18 12.554 18 12 C 18 11.446 17.554 11 17 11 z "
     />
</svg>
